X:192
%%pagewidth 9in
%%vocalfont Baskerville10Pro 14
%%pos vol above
T:I tell thee, Dick, where I have been
M:3/4
L:1/8
K:F
%%score 1 2
V:1 clef-treble
V:2 clef-bass octave=-1
[V:1]"_f"F [CA]F|[CGc]3 d[Ge]c|[Fcf]3 [FA][FB][FAc]|[FBd]3 [Ac][GB][FA]|
w:I'll tell thee, Dick, where I have been, Where I the ra-rest things have
[V:2]z[F,F]2|[E,E]4[B,B]2|[A,A]3 [Dd][Dd][Cc]|[B,B]4[B,B]2|
[V:1][EG]4"^p"[Gc]2|[D=B]3 [Ec][Fd][DB]|[Ec]3 "^f"c[EG]A|[D_B]3 [CA][B,G][DF]|[^CE]3 E[A,F]D|
w:seen, Oh! things be-yond com-pare. Such sights a-gain can-not be found In a-ny
[V:2][Cc]4E2|G2G,2G2|C2c2[C,C]2|[G,G]4[G,G]2|[A,A]2[A,,A,]2[D,D]2|
[V:1][G,DG]3 F[B,E]D|C4"^p"[CFc]2|[DGB]3 [CA][B,EG][CA]|[A,F]3||
w:place on En-glish ground, Be it at Wake or Fair.
[V:2][B,,B,]4[G,,G,]2|[A,,A,]2[F,,F,]2A,2|B,4C2|F3||

